X:41
T:Coppers and Brass  
B:CRE1.004 (Pingneacha Rua agus Pras)
F:file ID: cre.1/041copp_b
S:John Potts
M:6/8
Q:160
R:jig
K:G
d/c/|BGB BGB|AFA AFA|BGB AFA|GBd gdc|
BGB BGB|AFA ABc|ded cAF|AGG G2:|
%B
(3Ace|f3 fed|dcA AGF|GBd gfg|afd dcA|
cde ff/e/d|cAG FGA|BGG cAF|AGG G2:|
%C
d/c/|BAB GBd|cBc ABc|BAB GBd|cAG FGA|
BGG BGG|AFF ABc|ded cAF|AGG G2:|

%%%

